packages/core/src/svgs/tokens/mono/ROOBEE.svg

<svg width="24" height="24" viewBox="0 0 24 24" fill="none" xmlns="http://www.w3.org/2000/svg">
<path d="M2.88889 11.5996V10.8885H2V13.9996H2.88889V12.5506L4.34222 11.5996L3.94223 10.8885L2.88889 11.5996ZM6.22222 13.1106C5.84889 13.1106 5.55555 12.8218 5.55555 12.444C5.55555 12.0662 5.84 11.7773 6.22222 11.7773C6.60445 11.7773 6.88888 12.044 6.88888 12.444C6.88888 12.844 6.59556 13.1106 6.22222 13.1106ZM6.22222 10.8885C5.31111 10.8885 4.66667 11.5996 4.66667 12.444C4.66667 13.2885 5.28889 13.9996 6.22222 13.9996C7.15556 13.9996 7.77778 13.2885 7.77778 12.444C7.77778 11.5507 7.13333 10.8885 6.22222 10.8885ZM9.77779 13.1106C9.37778 13.1106 9.09778 12.8306 9.11111 12.444C9.12445 12.0618 9.37333 11.7818 9.77779 11.7773C10.1822 11.7728 10.4444 12.0573 10.4444 12.444C10.4444 12.8306 10.1778 13.1106 9.77779 13.1106ZM9.77779 10.8885C9.57183 10.8823 9.3668 10.9183 9.17529 10.9943C8.98378 11.0704 8.80984 11.1846 8.66415 11.3303C8.51845 11.476 8.4041 11.65 8.32809 11.8415C8.2521 12.033 8.21607 12.2381 8.22222 12.444C8.22222 13.2885 8.86667 13.9996 9.77779 13.9996C10.6889 13.9996 11.3333 13.2885 11.3333 12.444C11.3333 11.5551 10.6489 10.8885 9.77779 10.8885ZM13.3334 13.1106C12.96 13.1106 12.6489 12.844 12.6667 12.444C12.6844 12.044 12.9467 11.7773 13.3334 11.7773C13.72 11.7773 14 12.044 14 12.444C14 12.844 13.7067 13.1106 13.3334 13.1106ZM13.3334 10.8885C13.0355 10.8885 12.6756 11.004 12.4755 11.1062V9.99951H11.7778V12.444C11.7778 13.2885 12.4 13.9996 13.3334 13.9996C14.2667 13.9996 14.8889 13.2885 14.8889 12.444C14.8889 11.5996 14.1777 10.8885 13.3334 10.8885ZM16.2223 12.2218C16.2223 11.8307 16.4711 11.5996 16.8889 11.5996C17.3067 11.5996 17.5556 11.8307 17.5556 12.2218H16.2223ZM16.8889 10.8885C16.12 10.8885 15.3245 11.3995 15.3333 12.444C15.3258 12.6503 15.361 12.8559 15.4365 13.048C15.5121 13.2401 15.6264 13.4146 15.7724 13.5606C15.9183 13.7065 16.0928 13.8208 16.2849 13.8964C16.4769 13.9719 16.6826 14.007 16.8889 13.9996C17.3333 13.9996 17.8488 13.8351 18.0977 13.5862L18.1467 13.5418L17.6489 13.0929C17.4978 13.2395 17.1422 13.3329 16.9378 13.3329C16.48 13.3329 16.2223 13.0085 16.2223 12.6663H18.4444V12.3995C18.4444 11.5018 17.7333 10.8885 16.8889 10.8885ZM19.7777 12.2218C19.7777 11.8751 20 11.5996 20.4444 11.5996C20.8889 11.5996 21.1112 11.8796 21.1112 12.2218H19.7777ZM20.4444 10.8885C19.7112 10.8885 18.8844 11.3507 18.8889 12.444C18.8933 13.5374 19.7911 13.9862 20.5555 13.9862C21 13.9862 21.4 13.8351 21.6533 13.5862L21.6978 13.5418L21.2045 13.0929C21.0533 13.2395 20.8044 13.3329 20.6045 13.3329C20.1555 13.3329 19.7777 13.0396 19.7777 12.6663H22V12.3995C22 11.5018 21.2889 10.8885 20.4444 10.8885Z" fill="white"/>
</svg>

<svg xmlns="http://www.w3.org/2000/svg" width="24" height="24" fill="none" viewBox="0 0 24 24">
    <path fill="#fff" d="M2.889 11.6v-.711H2v3.11h.889v-1.448l1.453-.951-.4-.711zm3.333 1.51a.657.657 0 0 1-.666-.666c0-.378.284-.667.666-.667s.667.267.667.667-.293.667-.667.667m0-2.221c-.91 0-1.555.71-1.555 1.555S5.289 14 6.222 14c.934 0 1.556-.711 1.556-1.556 0-.893-.645-1.556-1.556-1.556m3.556 2.222c-.4 0-.68-.28-.667-.667.013-.382.262-.662.667-.667.404-.004.666.28.666.667s-.266.667-.666.667m0-2.222a1.51 1.51 0 0 0-1.556 1.555c0 .845.645 1.556 1.556 1.556.91 0 1.555-.711 1.555-1.556a1.53 1.53 0 0 0-1.555-1.556m3.555 2.222c-.373 0-.684-.267-.666-.667.017-.4.28-.667.666-.667.387 0 .667.267.667.667s-.293.667-.667.667m0-2.222a2.1 2.1 0 0 0-.857.217V10h-.698v2.444c0 .845.622 1.556 1.555 1.556.934 0 1.556-.711 1.556-1.556 0-.844-.711-1.556-1.556-1.556m2.89 1.333c0-.391.248-.622.666-.622s.667.23.667.622zm.666-1.333c-.769 0-1.564.51-1.556 1.555A1.5 1.5 0 0 0 16.89 14c.444 0 .96-.165 1.209-.414l.049-.044-.498-.45c-.151.147-.507.24-.711.24-.458 0-.716-.324-.716-.666h2.222V12.4c0-.897-.71-1.51-1.555-1.51m2.889 1.333c0-.347.222-.622.666-.622s.667.28.667.622zm.666-1.333c-.733 0-1.56.462-1.555 1.555.004 1.093.902 1.542 1.666 1.542.445 0 .845-.15 1.098-.4l.045-.044-.494-.45a.93.93 0 0 1-.6.24c-.448 0-.826-.292-.826-.666H22V12.4c0-.897-.711-1.51-1.556-1.51"/>
</svg>
